!!!COM: Mozart
!!!OTL: 12 Variations on "Ah Vous dirais-je, Maman" for the Piano
!!!Variation: 1 a2
**function	**harm	**kern	**kern
*	*	*clefF4	*clefG2
*	*	*k[]	*k[]
*M2/4	*M2/4	*M2/4	*M2/4
*C:	*C:	*C:	*C:
=41	=41	=41	=41
2T	C:maj	4C	16ddLL
.	.	.	16cc
.	.	.	16b
.	.	.	16ccJJ
.	.	4c	16bLL
.	.	.	16cc
.	.	.	16b
.	.	.	16ccJJ
=42	=42	=42	=42
2T	C:maj/3	4e	16aaLL
.	.	.	16gg
.	.	.	16ff#
.	.	.	16ggJJ
.	.	4c	16ff#LL
.	.	.	16gg
.	.	.	16ff#
.	.	.	16ggJJ
=43	=43	=43	=43
2T	F:maj	4f	16gg#LL
.	.	.	16aa
.	.	.	16ccc
.	.	.	16bbJJ
.	.	4c	16dddLL
.	.	.	16ccc
.	.	.	16bb
.	.	.	16aaJJ
=44	=44	=44	=44
4.T	C:maj/3	4e	16aaLL
.	.	.	16gg
.	.	.	16eee
.	.	.	16dddJJ
.	.	8.r	16cccLL
.	.	.	16bb
8T	C#:dim	.	16aa
.	.	16c#	[16ggJJ
=45	=45	=45	=45
4.T	D:min	4d	16ggLL]
.	.	.	16ff
.	.	.	16ddd
.	.	.	16cccJJ
.	.	8.r	16bbLL
.	.	.	16aa
8T	B:dim	.	16gg
.	.	16B	[16ffJJ
=46	=46	=46	=46
4.T	C:maj	4c	16ffLL]
.	.	.	16ee
.	.	.	16ccc
.	.	.	16bbJJ
.	.	8.r	16aaLL
.	.	.	16gg
8T	A:min	.	16ff
.	.	16A	16eeJJ
=47	=47	=47	=47
4P	D:min/b3	4F	8ddL
.	.	.	8aaJ
4D	G:maj	4G	8ggL
.	.	.	8bJ
=48	=48	=48	=48
2T	C:maj	4c	4cc
.	.	4C	4r
*-	*-	*-	*-
!!!EMD: Edited in humdrumR 0.7.0.3 on 2024-01-19
